src/scalable/mimetypes/text-x-patch.svg

<?xml version="1.0" encoding="UTF-8" standalone="no"?>
<svg
   xmlns:dc="http://purl.org/dc/elements/1.1/"
   xmlns:cc="http://creativecommons.org/ns#"
   xmlns:rdf="http://www.w3.org/1999/02/22-rdf-syntax-ns#"
   xmlns:svg="http://www.w3.org/2000/svg"
   xmlns="http://www.w3.org/2000/svg"
   xmlns:xlink="http://www.w3.org/1999/xlink"
   xmlns:sodipodi="http://sodipodi.sourceforge.net/DTD/sodipodi-0.dtd"
   xmlns:inkscape="http://www.inkscape.org/namespaces/inkscape"
   width="48px"
   height="48px"
   viewBox="0 0 48 48"
   version="1.1"
   id="svg21"
   sodipodi:docname="text-x-patch.svg"
   inkscape:version="0.92.4 (5da689c313, 2019-01-14)">
  <metadata
     id="metadata25">
    <rdf:RDF>
      <cc:Work
         rdf:about="">
        <dc:format>image/svg+xml</dc:format>
        <dc:type
           rdf:resource="http://purl.org/dc/dcmitype/StillImage" />
        <dc:title>application-atom+xml</dc:title>
      </cc:Work>
    </rdf:RDF>
  </metadata>
  <sodipodi:namedview
     pagecolor="#ffffff"
     bordercolor="#666666"
     borderopacity="1"
     objecttolerance="10"
     gridtolerance="10"
     guidetolerance="10"
     inkscape:pageopacity="0"
     inkscape:pageshadow="2"
     inkscape:window-width="1221"
     inkscape:window-height="687"
     id="namedview23"
     showgrid="false"
     inkscape:zoom="9.8333335"
     inkscape:cx="9.2443931"
     inkscape:cy="21.488659"
     inkscape:window-x="527"
     inkscape:window-y="387"
     inkscape:window-maximized="0"
     inkscape:current-layer="svg21" />
  <!-- Generator: Sketch 41.2 (35397) - http://www.bohemiancoding.com/sketch -->
  <title
     id="title2">application-atom+xml</title>
  <desc
     id="desc4">Created with Sketch.</desc>
  <g
     id="g1185">
    <rect
       style="opacity:1;fill:#687583;fill-opacity:1;stroke:none;stroke-width:0.92582005;stroke-linecap:round;stroke-linejoin:round;stroke-miterlimit:4;stroke-dasharray:none;stroke-opacity:0.05882353;paint-order:markers stroke fill"
       id="rect1181"
       width="36"
       height="40"
       x="6"
       y="4"
       ry="1.9047618"
       rx="2" />
    <path
       style="opacity:0.15;fill:url(#linearGradient1187);fill-opacity:1;stroke:none;stroke-width:0.92582005;stroke-linecap:round;stroke-linejoin:round;stroke-miterlimit:4;stroke-dasharray:none;stroke-opacity:0.05882353;paint-order:markers stroke fill"
       d="M 42,17.242188 A 40,40 0 0 1 23.494141,44 H 40 c 1.108,0 2,-0.849059 2,-1.904297 z"
       id="path1183"
       inkscape:connector-curvature="0" />
  </g>
  <defs
     id="defs11">
    <linearGradient
       inkscape:collect="always"
       xlink:href="#linearGradient875"
       id="linearGradient1187"
       gradientUnits="userSpaceOnUse"
       x1="32.74707"
       y1="44"
       x2="32.74707"
       y2="17.242188" />
    <linearGradient
       inkscape:collect="always"
       id="linearGradient875">
      <stop
         style="stop-color:#000000;stop-opacity:1;"
         offset="0"
         id="stop871" />
      <stop
         style="stop-color:#000000;stop-opacity:0;"
         offset="1"
         id="stop873" />
    </linearGradient>
  </defs>
  <path
     inkscape:connector-curvature="0"
     style="fill:#ffffff;stroke-width:1"
     d="m 19.5,15 a 2.25,2.25 0 0 0 -2.25,2.25 2.25,2.25 0 0 0 1.5,2.118164 V 28.635 a 2.2499865,2.2499865 0 0 0 -1.5,2.115 2.2499865,2.2499865 0 0 0 2.25,2.25 2.2499865,2.2499865 0 0 0 2.25,-2.25 2.2499865,2.2499865 0 0 0 -1.5,-2.118165 V 19.368001 A 2.25,2.25 0 0 0 21.75,17.25 2.25,2.25 0 0 0 19.5,15 m 5.25,0 -3,2.1 3,2.400001 V 18 h 1.5 c 0.831,0 1.5,0.669 1.5,1.500001 v 9.135 A 2.2499865,2.2499865 0 0 0 26.25,30.75 2.2499865,2.2499865 0 0 0 28.5,33 2.2499865,2.2499865 0 0 0 30.75,30.75 2.2499865,2.2499865 0 0 0 29.25,28.631836 V 19.500001 C 29.25,17.838 27.915,16.5825 26.25,16.5 h -1.5 z M 19.5,16.5 A 0.75,0.75 0 0 1 20.25,17.25 0.75,0.75 0 0 1 19.5,18 0.75,0.75 0 0 1 18.75,17.25 0.75,0.75 0 0 1 19.5,16.5 m 0,13.5 A 0.7499865,0.7499865 0 0 1 20.25,30.75 0.7499865,0.7499865 0 0 1 19.5,31.5 0.7499865,0.7499865 0 0 1 18.75,30.75 0.7499865,0.7499865 0 0 1 19.5,30 m 9,0 A 0.7499865,0.7499865 0 0 1 29.25,30.75 0.7499865,0.7499865 0 0 1 28.5,31.5 0.7499865,0.7499865 0 0 1 27.75,30.75 0.7499865,0.7499865 0 0 1 28.5,30"
     id="path2" />
</svg>

<svg xmlns="http://www.w3.org/2000/svg" xmlns:xlink="http://www.w3.org/1999/xlink" width="48" height="48"><g paint-order="markers stroke fill"><rect width="36" height="40" x="6" y="4" ry="1.905" rx="2" fill="#687583"/><path d="M42 17.242A40 40 0 0 1 23.494 44H40c1.108 0 2-.85 2-1.904z" opacity=".15" fill="url(#a)"/></g><defs><linearGradient xlink:href="#b" id="a" gradientUnits="userSpaceOnUse" x1="32.747" y1="44" x2="32.747" y2="17.242"/><linearGradient id="b"><stop offset="0"/><stop offset="1" stop-opacity="0"/></linearGradient></defs><path d="M19.5 15a2.25 2.25 0 0 0-2.25 2.25 2.25 2.25 0 0 0 1.5 2.118v9.267a2.25 2.25 0 0 0-1.5 2.115A2.25 2.25 0 0 0 19.5 33a2.25 2.25 0 0 0 2.25-2.25 2.25 2.25 0 0 0-1.5-2.118v-9.264a2.25 2.25 0 0 0 1.5-2.118A2.25 2.25 0 0 0 19.5 15m5.25 0l-3 2.1 3 2.4V18h1.5c.831 0 1.5.669 1.5 1.5v9.135a2.25 2.25 0 0 0-1.5 2.115A2.25 2.25 0 0 0 28.5 33a2.25 2.25 0 0 0 2.25-2.25 2.25 2.25 0 0 0-1.5-2.118V19.5c0-1.662-1.335-2.918-3-3h-1.5zm-5.25 1.5a.75.75 0 0 1 .75.75.75.75 0 0 1-.75.75.75.75 0 0 1-.75-.75.75.75 0 0 1 .75-.75m0 13.5a.75.75 0 0 1 .75.75.75.75 0 0 1-.75.75.75.75 0 0 1-.75-.75.75.75 0 0 1 .75-.75m9 0a.75.75 0 0 1 .75.75.75.75 0 0 1-.75.75.75.75 0 0 1-.75-.75.75.75 0 0 1 .75-.75" fill="#fff"/></svg>
